ukui-icon-theme/48x48/devices/computer.svg

<?xml version="1.0" encoding="iso-8859-1"?>
<!-- Generator: Adobe Illustrator 21.0.0, SVG Export Plug-In . SVG Version: 6.00 Build 0)  -->
<svg version="1.1" id="&#x5176;&#x4ED6;" xmlns="http://www.w3.org/2000/svg" xmlns:xlink="http://www.w3.org/1999/xlink" x="0px"
	 y="0px" viewBox="0 0 48 48" style="enable-background:new 0 0 48 48;" xml:space="preserve">
<title>画板 22</title>
<g id="&#x7535;&#x8111;">
	<path style="opacity:0.1;enable-background:new    ;" d="M13.2,44.9c-1.913,0.033-3.492-1.487-3.53-3.4V39l0.65-0.3H2V5.1h46v33.6
		h-8l0.61,0.27v2.53c-0.037,1.916-1.62,3.439-3.536,3.402c-0.025,0-0.049-0.001-0.074-0.002H13.2z"/>
	<path style="opacity:0.1;enable-background:new    ;" d="M13.2,43.9c-1.36,0.034-2.492-1.04-2.53-2.4v-1.86l4.17-1.94H3V6.1h44
		v31.6H35.27l4.31,1.92v1.88c-0.037,1.364-1.173,2.439-2.537,2.402c-0.014,0-0.029-0.001-0.043-0.002H13.2z"/>
	<path style="opacity:0.2;enable-background:new    ;" d="M12.2,42.9c-1.36,0.034-2.492-1.04-2.53-2.4v-1.86l4.17-1.94H2V5.1h44
		v31.6H34.27l4.31,1.92v1.88c-0.037,1.364-1.173,2.439-2.537,2.402c-0.014,0-0.029-0.001-0.043-0.002H12.2z"/>
	<path style="opacity:0.08;enable-background:new    ;" d="M40.72,30.68V12.06H9.28v18.62H40.72z"/>
	<path style="opacity:0.1;enable-background:new    ;" d="M41.72,31.65V11.1H8.28v20.55H41.72z"/>
	<path style="fill:#263238;" d="M12.2,41.9c-0.808,0.034-1.492-0.592-1.53-1.4v-1.22l6.5-3h13.65l6.75,3v1.22
		c-0.037,0.811-0.724,1.439-1.535,1.402C36.023,41.901,36.012,41.901,36,41.9H12.2z"/>
	<path style="fill:#455A64;" d="M30.71,36.76H17.28l-6.11,2.84v0.9c0.052,0.513,0.485,0.903,1,0.9H36c0.515,0.003,0.948-0.387,1-0.9
		v-0.9L30.71,36.76z"/>
	
		<linearGradient id="SVGID_1_" gradientUnits="userSpaceOnUse" x1="24.125" y1="7.31" x2="24.125" y2="12.31" gradientTransform="matrix(1 0 0 -1 0 50)">
		<stop  offset="0" style="stop-color:#90A4AE"/>
		<stop  offset="1" style="stop-color:#455A64"/>
	</linearGradient>
	<polygon style="fill:url(#SVGID_1_);" points="11.17,39.6 17.28,36.76 30.71,36.76 37.08,39.6 	"/>
	<path style="fill:#90A4AE;" d="M36,39.6H11.17v0.9c0.052,0.513,0.485,0.903,1,0.9H36c0.515,0.003,0.948-0.387,1-0.9v-0.9H36z"/>
	<path style="fill:#263238;" d="M3,6.1v29.6h15.5v2.75h11V35.7H45V6.1H3z M41.72,9.17v22.48H6.28V9.17H41.72z"/>
	
		<linearGradient id="rect3008_1_" gradientUnits="userSpaceOnUse" x1="24" y1="41.04" x2="24" y2="18.1" gradientTransform="matrix(1 0 0 -1 0 50)">
		<stop  offset="0" style="stop-color:#B3E5FC"/>
		<stop  offset="1" style="stop-color:#0288D1"/>
	</linearGradient>
	<rect id="rect3008" x="6.08" y="8.96" style="fill:url(#rect3008_1_);" width="35.84" height="22.94"/>
	
		<linearGradient id="rect3008-2_1_" gradientUnits="userSpaceOnUse" x1="24" y1="41.04" x2="24" y2="18.1" gradientTransform="matrix(1 0 0 -1 0 50)">
		<stop  offset="0" style="stop-color:#B3E5FC"/>
		<stop  offset="1" style="stop-color:#0288D1"/>
	</linearGradient>
	
		<rect id="rect3008-2" x="6.08" y="8.96" style="fill:url(#rect3008-2_1_);stroke:#01579B;stroke-width:1.5;stroke-miterlimit:10;" width="35.84" height="22.94"/>
	
		<linearGradient id="SVGID_2_" gradientUnits="userSpaceOnUse" x1="6.81" y1="40.015" x2="41.15" y2="40.015" gradientTransform="matrix(1 0 0 -1 0 50)">
		<stop  offset="0" style="stop-color:#FFFFFF"/>
		<stop  offset="1" style="stop-color:#4FC3F7"/>
	</linearGradient>
	<rect x="6.81" y="9.66" style="opacity:0.8;fill:url(#SVGID_2_);enable-background:new    ;" width="34.34" height="0.65"/>
	
		<linearGradient id="SVGID_3_" gradientUnits="userSpaceOnUse" x1="-1238.79" y1="366.445" x2="-1217.9301" y2="366.445" gradientTransform="matrix(6.123234e-17 -1 -1 -6.123234e-17 373.59 -1207.62)">
		<stop  offset="0" style="stop-color:#0288D1"/>
		<stop  offset="1" style="stop-color:#FFFFFF"/>
	</linearGradient>
	<rect x="6.81" y="10.31" style="opacity:0.8;fill:url(#SVGID_3_);enable-background:new    ;" width="0.67" height="20.86"/>
	<rect x="18.88" y="35.08" style="fill:#293A3F;" width="10.25" height="2.93"/>
	
		<linearGradient id="SVGID_4_" gradientUnits="userSpaceOnUse" x1="24" y1="43.44" x2="24" y2="14.72" gradientTransform="matrix(1 0 0 -1 0 50)">
		<stop  offset="0" style="stop-color:#607D8B"/>
		<stop  offset="1" style="stop-color:#455A64"/>
	</linearGradient>
	<path style="fill:url(#SVGID_4_);" d="M3.5,6.56v28.72h41V6.56H3.5z M41.92,31.9H6.08V9h35.84V31.9z"/>
	<path id="rect3008-0" style="opacity:0.23;fill:#EEE8D5;enable-background:new    ;" d="M28.59,9l-9.27,22.87h22.6V9H28.59z"/>
	<circle style="fill:#1D272B;" cx="23.99" cy="33.57" r="1.48"/>
	<circle style="fill:#03A9F4;" cx="23.99" cy="33.67" r="1.13"/>
</g>
</svg>

<svg id="其他" xmlns="http://www.w3.org/2000/svg" xmlns:xlink="http://www.w3.org/1999/xlink" viewBox="0 0 48 48"><defs><style>.cls-1{opacity:0.1;}.cls-2{opacity:0.2;}.cls-3{opacity:0.08;}.cls-4{fill:#263238;}.cls-5{fill:#455a64;}.cls-6{fill:url(#linear-gradient);}.cls-7{fill:#90a4ae;}.cls-8,.cls-9{fill:url(#linear-gradient-2);}.cls-9{stroke:#01579b;stroke-miterlimit:10;stroke-width:1.5px;}.cls-10,.cls-11{opacity:0.8;}.cls-10{fill:url(#linear-gradient-4);}.cls-11{fill:url(#linear-gradient-5);}.cls-12{fill:#293a3f;}.cls-13{fill:url(#linear-gradient-6);}.cls-14{fill:#eee8d5;opacity:0.23;isolation:isolate;}.cls-15{fill:#1d272b;}.cls-16{fill:#03a9f4;}</style><linearGradient id="linear-gradient" x1="24.12" y1="42.69" x2="24.12" y2="37.69" gradientUnits="userSpaceOnUse"><stop offset="0" stop-color="#90a4ae"/><stop offset="1" stop-color="#455a64"/></linearGradient><linearGradient id="linear-gradient-2" x1="24" y1="8.96" x2="24" y2="31.9" gradientUnits="userSpaceOnUse"><stop offset="0" stop-color="#b3e5fc"/><stop offset="1" stop-color="#0288d1"/></linearGradient><linearGradient id="linear-gradient-4" x1="6.81" y1="9.99" x2="41.16" y2="9.99" gradientUnits="userSpaceOnUse"><stop offset="0" stop-color="#fff"/><stop offset="1" stop-color="#4fc3f7"/></linearGradient><linearGradient id="linear-gradient-5" x1="-638.79" y1="-566.43" x2="-617.93" y2="-566.43" gradientTransform="translate(573.59 -607.62) rotate(-90)" gradientUnits="userSpaceOnUse"><stop offset="0" stop-color="#0288d1"/><stop offset="1" stop-color="#fff"/></linearGradient><linearGradient id="linear-gradient-6" x1="24" y1="6.56" x2="24" y2="35.28" gradientUnits="userSpaceOnUse"><stop offset="0" stop-color="#607d8b"/><stop offset="1" stop-color="#455a64"/></linearGradient></defs><title>画板 22</title><g id="电脑"><path class="cls-1" d="M13.2,44.9a3.47,3.47,0,0,1-3.53-3.4V39l.65-.3H2V5.1H48V38.7H40l.61.27V41.5A3.47,3.47,0,0,1,37,44.9Z"/><path class="cls-1" d="M13.2,43.9a2.47,2.47,0,0,1-2.53-2.4V39.64l4.17-1.94H3V6.1H47V37.7H35.27l4.31,1.92V41.5A2.47,2.47,0,0,1,37,43.9Z"/><path class="cls-2" d="M12.2,42.9a2.47,2.47,0,0,1-2.53-2.4V38.64l4.17-1.94H2V5.1H46V36.7H34.27l4.31,1.92V40.5A2.47,2.47,0,0,1,36,42.9Z"/><path class="cls-3" d="M40.72,30.68V12.06H9.28V30.68Z"/><path class="cls-1" d="M41.72,31.65V11.1H8.28V31.65Z"/><path class="cls-4" d="M12.2,41.9a1.47,1.47,0,0,1-1.53-1.4V39.28l6.5-3H30.82l6.75,3V40.5A1.47,1.47,0,0,1,36,41.9Z"/><path class="cls-5" d="M30.71,36.76H17.28L11.17,39.6v.9a1,1,0,0,0,1,.9H36a1,1,0,0,0,1-.9v-.9Z"/><polygon class="cls-6" points="11.17 39.6 17.28 36.76 30.71 36.76 37.08 39.6 11.17 39.6"/><path class="cls-7" d="M36,39.6H11.17v.9a1,1,0,0,0,1,.9H36a1,1,0,0,0,1-.9v-.9Z"/><path class="cls-4" d="M3,6.1V35.7H18.5v2.75h11V35.7H45V6.1ZM41.72,9.17V31.65H6.28V9.17Z"/><rect id="rect3008" class="cls-8" x="6.08" y="8.96" width="35.84" height="22.94"/><rect id="rect3008-2" data-name="rect3008" class="cls-9" x="6.08" y="8.96" width="35.84" height="22.94"/><rect class="cls-10" x="6.81" y="9.66" width="34.34" height="0.65"/><rect class="cls-11" x="6.81" y="10.31" width="0.67" height="20.86"/><rect class="cls-12" x="18.88" y="35.08" width="10.25" height="2.93"/><path class="cls-13" d="M3.5,6.56V35.28h41V6.56ZM41.92,31.9H6.08V9H41.92Z"/><path id="rect3008-0" class="cls-14" d="M28.59,9,19.32,31.87h22.6V9Z"/><circle class="cls-15" cx="23.99" cy="33.57" r="1.48"/><circle class="cls-16" cx="23.99" cy="33.67" r="1.13"/></g></svg>
